shader_type spatial;

uniform bool is_hidden = false;

void vertex() {
	// Called for every vertex the material is visible on.
}

void fragment() {
	
}

//void light() {
//	// Called for every pixel for every light affecting the material.
//	// Uncomment to replace the default light processing function with this one.
//}
